src/assets/outline/Forward.svg

<svg width="24" height="24" viewBox="0 0 24 24"  xmlns="http://www.w3.org/2000/svg">
<path d="M3.95001 18.3601C3.49001 18.3601 3.02001 18.2401 2.60001 17.9901C1.75001 17.5001 1.25 16.6301 1.25 15.6501V8.33005C1.25 7.35005 1.75001 6.48006 2.60001 5.99006C3.45001 5.50006 4.45999 5.50006 5.29999 5.99006L11.64 9.65006C11.93 9.82006 12.16 10.0201 12.34 10.2401C12.45 10.3701 12.51 10.5401 12.51 10.7101V13.2701C12.51 13.4401 12.45 13.6101 12.34 13.7401C12.16 13.9601 11.93 14.1601 11.66 14.3201L5.29999 18.0001C4.87999 18.2401 4.42001 18.3601 3.95001 18.3601ZM3.95001 7.14008C3.74001 7.14008 3.54001 7.19006 3.35001 7.30006C2.97001 7.52006 2.75 7.91006 2.75 8.34006V15.6601C2.75 16.0901 2.97001 16.4801 3.35001 16.7001C3.73001 16.9201 4.16999 16.9201 4.54999 16.7001L10.89 13.0401C10.93 13.0201 10.97 12.9901 11 12.9601V11.0301C10.96 11.0001 10.92 10.9701 10.88 10.9501L4.54999 7.30006C4.35999 7.19006 4.16001 7.14008 3.95001 7.14008Z" />
<path d="M13.7097 18.3601C13.2497 18.3601 12.7797 18.2401 12.3597 17.9901C11.5097 17.5001 11.0098 16.6301 11.0098 15.6501V8.33005C11.0098 7.35005 11.5097 6.48006 12.3597 5.99006C13.2097 5.50006 14.2198 5.50006 15.0598 5.99006L21.3997 9.65006C22.2397 10.1401 22.7498 11.0101 22.7498 11.9901C22.7498 12.9701 22.2498 13.8401 21.3997 14.3301L15.0598 17.9901C14.6398 18.2401 14.1697 18.3601 13.7097 18.3601ZM13.7097 7.14008C13.4997 7.14008 13.2997 7.19006 13.1097 7.30006C12.7297 7.52006 12.5098 7.90006 12.5098 8.34006V15.6601C12.5098 16.0901 12.7297 16.4801 13.1097 16.7001C13.4897 16.9201 13.9398 16.9201 14.3098 16.7001L20.6497 13.0401C21.0297 12.8201 21.2498 12.4301 21.2498 12.0001C21.2498 11.5701 21.0297 11.1801 20.6497 10.9601L14.3098 7.30006C14.1198 7.19006 13.9197 7.14008 13.7097 7.14008Z" />
</svg>

<?xml version="1.0" encoding="UTF-8"?>
<svg width="24" height="24" viewBox="0 0 24 24" xmlns="http://www.w3.org/2000/svg">
 <path d="m3.95 18.36c-0.46 0-0.93-0.12-1.35-0.37-0.85-0.49-1.35-1.36-1.35-2.34v-7.32c0-0.98 0.50001-1.85 1.35-2.34s1.86-0.49 2.7 0l6.34 3.66c0.29 0.17 0.52 0.37004 0.7 0.59004 0.11 0.13 0.17 0.3 0.17 0.47v2.56c0 0.17-0.06 0.34-0.17 0.47-0.18 0.22-0.41 0.42-0.68 0.58l-6.36 3.68c-0.42 0.24-0.87998 0.36-1.35 0.36zm0-11.22c-0.21 0-0.41 0.04998-0.6 0.15998-0.38 0.22-0.60001 0.61-0.60001 1.04v7.32c0 0.43 0.22001 0.82 0.60001 1.04s0.81998 0.22 1.2 0l6.34-3.66c0.04-0.02 0.08-0.05 0.11-0.08v-1.93c-0.04-0.03-0.08-0.06-0.12-0.08l-6.33-3.65c-0.19-0.11-0.38998-0.15998-0.59998-0.15998z"/>
 <path d="m13.71 18.36c-0.46 0-0.93-0.12-1.35-0.37-0.85-0.49-1.3499-1.36-1.3499-2.34v-7.32c0-0.98 0.4999-1.85 1.3499-2.34s1.8601-0.49 2.7001 0l6.3399 3.66c0.84 0.49004 1.3501 1.36 1.3501 2.34s-0.5 1.85-1.3501 2.34l-6.3399 3.66c-0.42 0.25-0.8901 0.37-1.3501 0.37zm0-11.22c-0.21 0-0.41 0.04998-0.6 0.15998-0.38 0.22-0.5999 0.6-0.5999 1.04v7.32c0 0.43 0.2199 0.82 0.5999 1.04s0.8301 0.22 1.2001 0l6.3399-3.66c0.38-0.22 0.6001-0.61 0.6001-1.04s-0.2201-0.82-0.6001-1.04l-6.3399-3.66c-0.19-0.11-0.3901-0.15998-0.6001-0.15998z"/>
</svg>
